X:1
T:Buxtehude - Aria:  La Capricciosa in G Minor.
%%score { ( 1 3 ) | 2 }
L:1/8
Q:1/4=100
M:4/4
K:G
V:1 treble nm="Harpsichord" snm="Hch."
V:3 treble 
V:2 bass 
V:1
"^Partita 22"!f! B/d/c/d/ B/d/c/d/ G/e/d/e/ G/e/d/e/ | A/d/c/d/ A/c/B/c/ B/d/c/d/ B/c/A/B/ | %2
 G/B/A/B/ G/B/A/B/ E/c/F/c/ G/B/G/B/ | E/A/E/A/ D/A/C/A/ B,/G/A,/F/ G2 :: %4
 z/ B/A/B/ G/B/A/B/ c/e/d/e/ c/d/B/c/ | A/c/B/d/ A/c/F/c/ B/D/A/C/ G/B,/G/A/ | %6
 B/c/d/c/ B/A/G/=F/ E/G/A/B/ c/B/A/G/ | F/d/G/A/ B/A/G/F/ G/A/B/c/ d/e/f/g/ :| %8
V:2
 G,,/B,/A,/B,/ G,/B,/A,/B,/ E,/C/B,/C/ E,/C/B,/C/ | %1
 F,/B,/A,/B,/ F,/A,/G,/A,/ G,/B,/A,/B,/ G,/A,/F,/G,/ | %2
 E,/G,/F,/G,/ E,/G,/F,/G,/ A,,/A,/A,,/A,/ B,,/G,/B,,/G,/ | %3
 C,/G,/C,/G,/ D,/G,/D,/F,/ G, z z/ G,,/B,,/D,/ :: %4
 G,,/G,/F,/G,/ E,/G,/F,/G,/ A,,/C/B,/C/ A,/B,/G,/A,/ | %5
 F,/A,/G,/B,,/ C,/A,,/D,/D,,/ G,,/G,/F,/A,/ E,/G,/E,/F,/ | %6
 G,/A,/B,/C/ D/C/B,/D/ C/D/C/B,/ A,/B,/C/A,/ | D/B,/E/C/ D>D, G,>E, B,,D, :| %8
V:3
 x8 | x8 | x8 | x6 [B,D]2 :: x8 | x8 | x8 | x8 :| %8

